source/img/404/image-element-4.svg

<svg width="75" height="75" viewBox="0 0 75 75" fill="none" xmlns="http://www.w3.org/2000/svg">
<path d="M0 36.1863L73.6741 64.2409L20.1678 71.5594L0 36.1863Z" fill="url(#paint0_linear)"/>
<path d="M19.3457 65.0749C19.3457 64.6362 19.6181 64.252 20.0405 64.1336C26.2892 62.3819 52.369 56.7696 74.3275 64.1075C74.7312 64.2424 75.0006 64.6223 75.0006 65.048V71.0769C75.0006 71.496 74.7508 71.8686 74.3532 72.001C62.8135 75.8449 33.7292 75.8378 20.0468 71.9797C19.623 71.8602 19.3457 71.4735 19.3457 71.0332V65.0749Z" fill="#DD6404"/>
<g filter="url(#filter0_i)">
<path d="M46.2244 2.76818C46.5327 1.86612 47.8085 1.86612 48.1169 2.76818L51.4079 12.3958L56.0688 26.0311L60.3061 38.4269L66.6619 57.0206L69.6695 65.2144C53.0487 69.1526 39.5165 68.5678 24.6719 65.2144L27.6793 57.0206L34.0352 38.4269L38.2724 26.0311L42.9334 12.3958L46.2244 2.76818Z" fill="#FF7405"/>
</g>
<path d="M60.3084 38.4265H34.0375L27.6816 57.0202H66.6642L60.3084 38.4265Z" fill="#F1EAE4"/>
<path d="M51.4108 12.3955H42.9364L38.2754 26.0309H56.0718L51.4108 12.3955Z" fill="#F1EAE4"/>
<path d="M19.3457 65.6236C19.3457 65.0108 19.8982 64.5432 20.5042 64.6345C40.6457 67.6687 52.6903 67.8554 73.8393 64.637C74.4459 64.5447 75.0006 65.0123 75.0006 65.6258V71.1981C75.0006 71.6172 74.7508 71.9898 74.3532 72.1223C62.8135 75.9662 33.7292 75.9591 20.0468 72.1009C19.623 71.9814 19.3457 71.5948 19.3457 71.1545V65.6236Z" fill="#EF6A00"/>
<defs>
<filter id="filter0_i" x="20.6719" y="2.09167" width="48.9976" height="65.8615" filterUnits="userSpaceOnUse" color-interpolation-filters="sRGB">
<feFlood flood-opacity="0" result="BackgroundImageFix"/>
<feBlend mode="normal" in="SourceGraphic" in2="BackgroundImageFix" result="shape"/>
<feColorMatrix in="SourceAlpha" type="matrix" values="0 0 0 0 0 0 0 0 0 0 0 0 0 0 0 0 0 0 127 0" result="hardAlpha"/>
<feOffset dx="-4"/>
<feGaussianBlur stdDeviation="4"/>
<feComposite in2="hardAlpha" operator="arithmetic" k2="-1" k3="1"/>
<feColorMatrix type="matrix" values="0 0 0 0 0 0 0 0 0 0 0 0 0 0 0 0 0 0 0.3 0"/>
<feBlend mode="normal" in2="shape" result="effect1_innerShadow"/>
</filter>
<linearGradient id="paint0_linear" x1="40.8158" y1="63.8756" x2="16.2238" y2="47.11" gradientUnits="userSpaceOnUse">
<stop stop-opacity="0.4"/>
<stop offset="1" stop-color="#B4D1FA" stop-opacity="0"/>
</linearGradient>
</defs>
</svg>

<svg width="75" height="75" fill="none" xmlns="http://www.w3.org/2000/svg"><path d="M0 36.186l73.674 28.055-53.506 7.318L0 36.186z" fill="url(#paint0_linear)"/><path d="M19.346 65.075a.96.96 0 01.695-.941c6.248-1.752 32.328-7.364 54.287-.026a.99.99 0 01.673.94v6.029c0 .419-.25.792-.648.924-11.54 3.844-40.624 3.837-54.306-.021a.97.97 0 01-.701-.947v-5.958z" fill="#DD6404"/><g filter="url(#filter0_i)"><path d="M46.224 2.768c.309-.902 1.585-.902 1.893 0l3.29 9.628L56.07 26.03l4.237 12.396 6.356 18.594 3.007 8.193c-16.62 3.939-30.152 3.354-44.997 0l3.007-8.193 6.356-18.594 4.237-12.396 4.661-13.635 3.291-9.628z" fill="#FF7405"/></g><path d="M60.308 38.426h-26.27L27.681 57.02h38.982l-6.356-18.594zm-8.898-26.03h-8.474l-4.66 13.635h17.796L51.41 12.396z" fill="#F1EAE4"/><path d="M19.346 65.624c0-.613.552-1.08 1.158-.99 20.142 3.035 32.186 3.221 53.335.003a1.008 1.008 0 011.162.989v5.572c0 .42-.25.792-.648.924-11.54 3.844-40.624 3.837-54.306-.021a.97.97 0 01-.701-.947v-5.53z" fill="#EF6A00"/><defs><linearGradient id="paint0_linear" x1="40.816" y1="63.876" x2="16.224" y2="47.11" gradientUnits="userSpaceOnUse"><stop stop-opacity=".4"/><stop offset="1" stop-color="#B4D1FA" stop-opacity="0"/></linearGradient><filter id="filter0_i" x="20.672" y="2.092" width="48.998" height="65.862" filterUnits="userSpaceOnUse" color-interpolation-filters="sRGB"><feFlood flood-opacity="0" result="BackgroundImageFix"/><feBlend in="SourceGraphic" in2="BackgroundImageFix" result="shape"/><feColorMatrix in="SourceAlpha" values="0 0 0 0 0 0 0 0 0 0 0 0 0 0 0 0 0 0 127 0" result="hardAlpha"/><feOffset dx="-4"/><feGaussianBlur stdDeviation="4"/><feComposite in2="hardAlpha" operator="arithmetic" k2="-1" k3="1"/><feColorMatrix values="0 0 0 0 0 0 0 0 0 0 0 0 0 0 0 0 0 0 0.3 0"/><feBlend in2="shape" result="effect1_innerShadow"/></filter></defs></svg>
